X:5063
T:Jump The Drain
M:6/8
L:1/8
Q:180
C:Aidan Crossey
R:Jig
K:A
|:aga fec|e2c a2c|aga fec|edc Bce|
aga fec|e2c a2c|Bcd efe|aec A3:||
|:G2A B2c|dcd f2g|agf e2c|ded B2A|
G2A B2c|dcd f2g|aec fdB|GAB A3:||
